assets/results/yakuruto.svg

<svg width="123" height="251" viewBox="0 0 123 251" fill="none" xmlns="http://www.w3.org/2000/svg">
<g clip-path="url(#clip0_67_300)">
<path d="M100.15 29.38L119.29 72C120.119 72.7484 120.619 73.7945 120.68 74.91C120.675 75.2501 120.618 75.5874 120.51 75.91C120.289 76.5089 119.949 77.0566 119.51 77.52C118.21 78.98 115.88 80.36 112.67 81.61C102.37 85.61 83.12 88.33 61.07 88.33C39.02 88.33 19.81 85.63 9.49 81.6C7.37444 80.8456 5.38779 79.7696 3.6 78.41C3.00912 78.0152 2.51391 77.4934 2.15058 76.8826C1.78725 76.2719 1.56498 75.5877 1.5 74.88L2.71 72.17L21.55 29.38" stroke="#EEEEEE" stroke-width="3" stroke-miterlimit="10"/>
<path d="M2.71 72.1699L1.5 74.8799C1.54688 73.8563 1.97912 72.8882 2.71 72.1699Z" stroke="#EEEEEE" stroke-width="3" stroke-miterlimit="10"/>
<path d="M120.68 152.57V235.84C120.68 238.29 117.77 240.59 112.68 242.56C102.38 246.56 83.14 249.3 61.1 249.3C39.06 249.3 19.81 246.58 9.48999 242.56C4.41999 240.56 1.48999 238.29 1.48999 235.84V152.57C1.48999 155.03 4.39999 157.32 9.48999 159.31C19.81 163.31 39.06 166.01 61.1 166.01C83.14 166.01 102.38 163.31 112.68 159.31C117.77 157.32 120.68 155 120.68 152.57Z" stroke="#EEEEEE" stroke-width="3" stroke-linejoin="round"/>
<path d="M120.6 153.26C104.33 138.47 116.31 115.6 119.53 110.08" stroke="#EEEEEE" stroke-width="3" stroke-miterlimit="10"/>
<path d="M2.57001 110.08C5.79001 115.6 18.21 137.85 1.51001 153.26" stroke="#EEEEEE" stroke-width="3" stroke-miterlimit="10"/>
<path d="M120.68 74.88V107.45C120.676 107.79 120.619 108.128 120.51 108.45C120.289 109.052 119.949 109.603 119.51 110.07C118.21 111.53 115.88 112.91 112.67 114.16C102.37 118.16 83.12 120.88 61.07 120.88C39.02 120.88 19.79 118.18 9.47002 114.16C7.36687 113.405 5.38836 112.34 3.60002 111C3.01433 110.606 2.52376 110.087 2.16396 109.48C1.80416 108.873 1.58419 108.193 1.52002 107.49V74.88C1.58182 75.5825 1.79863 76.2626 2.15484 76.8713C2.51105 77.4799 2.99779 78.0021 3.58002 78.4C5.37329 79.7649 7.36685 80.8444 9.49002 81.6C19.81 85.6 39.04 88.32 61.09 88.32C83.14 88.32 102.39 85.63 112.69 81.6C115.9 80.35 118.23 78.97 119.53 77.51C119.969 77.0466 120.309 76.4989 120.53 75.9C120.633 75.57 120.684 75.2258 120.68 74.88Z" stroke="#EEEEEE" stroke-width="3" stroke-miterlimit="10"/>
<path d="M120.68 85.1V97.23C120.676 97.5702 120.619 97.9076 120.51 98.23C120.292 98.833 119.951 99.3845 119.51 99.85C118.21 101.31 115.88 102.69 112.67 103.94C102.37 107.94 83.12 110.66 61.07 110.66C39.02 110.66 19.81 108 9.49 104C7.37806 103.237 5.3926 102.162 3.6 100.81C3.00186 100.411 2.50206 99.8816 2.1383 99.2615C1.77453 98.6413 1.55628 97.9467 1.5 97.23V85.1C1.56549 85.8038 1.78595 86.4845 2.14556 87.0931C2.50518 87.7016 2.99504 88.2231 3.58 88.62C5.37019 89.9759 7.35624 91.0515 9.47 91.81C19.79 95.81 39.02 98.53 61.07 98.53C83.12 98.53 102.37 95.83 112.67 91.81C115.88 90.56 118.21 89.18 119.51 87.72C119.951 87.2545 120.292 86.703 120.51 86.1C120.619 85.7778 120.677 85.4402 120.68 85.1Z" fill="#EEEEEE" stroke="#EEEEEE" stroke-width="3" stroke-miterlimit="10"/>
<path d="M93.43 14.4399L93.37 14.2999" stroke="#EEEEEE" stroke-width="3" stroke-miterlimit="10"/>
<path d="M120.59 74.88L119.29 71.97" stroke="#EEEEEE" stroke-width="3" stroke-miterlimit="10"/>
<path d="M35 198.6C35.16 199.14 35.39 199.82 35.61 200.6C38.54 200.1 41.76 199.53 42.82 199.31C43.2927 199.23 43.7553 199.099 44.2 198.92L46.46 200.42C45.0478 202.947 43.3391 205.297 41.37 207.42L38.2 206.07C39.5418 204.983 40.7146 203.702 41.68 202.27C41.05 202.36 38.87 202.77 36.43 203.21C37.34 206.21 38.34 209.55 38.77 210.86C38.91 211.27 39.28 212.28 39.48 212.76L35.81 213.54C35.6758 212.842 35.5056 212.151 35.3 211.47C34.92 210.27 33.96 206.89 33.07 203.86C31.15 204.23 29.46 204.56 28.71 204.73L27.85 201.73C28.69 201.66 29.46 201.59 30.3 201.48C30.6 201.42 31.3 201.31 32.3 201.16C32.08 200.42 31.89 199.8 31.73 199.33C31.5641 198.717 31.3187 198.129 31 197.58L34.6 196.84C34.6968 197.434 34.8303 198.022 35 198.6Z" fill="#EEEEEE"/>
<path d="M54.12 199.53H57.4C58.0737 199.527 58.7447 199.446 59.4 199.29L61.91 200.69C61.5916 201.164 61.3235 201.67 61.11 202.2C60.3288 204.424 59.1345 206.48 57.59 208.26C55.3313 210.709 52.4847 212.54 49.32 213.58L46.39 211.22C50.79 210 52.91 208.43 54.64 206.68C55.8824 205.369 56.8032 203.788 57.33 202.06H52.27C50.7711 203.759 49.0448 205.243 47.14 206.47L44.37 204.61C46.9243 203.23 49.0986 201.241 50.7 198.82C51.1526 198.139 51.5156 197.403 51.78 196.63L55.38 197.7C54.9282 198.287 54.5076 198.898 54.12 199.53Z" fill="#EEEEEE"/>
<path d="M63.4699 207C64.0399 205.48 64.0599 202.09 64.0599 199.78C64.0764 199.136 63.9989 198.492 63.8299 197.87H67.4599C67.3575 198.488 67.3007 199.113 67.2899 199.74C67.3724 202.42 67.1746 205.101 66.6999 207.74C66.0649 209.877 64.7955 211.771 63.0599 213.17L60.0599 211.36C61.6491 210.326 62.8488 208.792 63.4699 207ZM69.7199 210.2V199.58C69.7145 199.002 69.6509 198.425 69.5299 197.86H73.1999C73.0822 198.433 73.0153 199.015 72.9999 199.6V208.69C74.7913 207.927 76.3527 206.711 77.5299 205.16L79.4199 207.64C77.4537 209.716 75.1213 211.411 72.5399 212.64C72.1889 212.813 71.8542 213.017 71.5399 213.25L69.4799 211.72C69.6205 211.221 69.7011 210.708 69.7199 210.19V210.2Z" fill="#EEEEEE"/>
<path d="M81.91 199.75C81.9115 198.944 81.8311 198.14 81.67 197.35H85.52C85.402 198.145 85.3319 198.946 85.31 199.75V202.28C88.1686 203.034 90.9774 203.966 93.72 205.07L92.32 208.19C90.0376 207.181 87.7006 206.299 85.32 205.55V210.3C85.32 210.8 85.45 212.25 85.55 213.09H81.67C81.8173 212.167 81.8975 211.235 81.91 210.3V199.75Z" fill="#EEEEEE"/>
<path d="M60.78 223.66C86.9362 223.66 108.14 215.35 108.14 205.1C108.14 194.85 86.9362 186.54 60.78 186.54C34.6238 186.54 13.42 194.85 13.42 205.1C13.42 215.35 34.6238 223.66 60.78 223.66Z" stroke="#EEEEEE" stroke-width="3" stroke-miterlimit="10"/>
<path d="M96.17 9.46997C96.1687 9.66925 96.1418 9.86753 96.09 10.06C95.9659 10.4311 95.7649 10.7719 95.5 11.06C94.3618 12.1521 92.9957 12.9786 91.5 13.48C87.5 15.02 81.29 16.25 73.81 16.89C69.81 17.25 65.53 17.44 61.03 17.44C56.53 17.44 52.27 17.25 48.33 16.91C40.81 16.25 34.55 15.02 30.53 13.48C29.2592 13.0218 28.068 12.3672 27 11.54C26.6529 11.3092 26.3622 11.0034 26.1493 10.645C25.9364 10.2867 25.8068 9.88514 25.77 9.46997C25.77 5.06997 41.52 1.46997 60.98 1.46997C80.11 1.49997 95.66 4.99997 96.14 9.24997C96.1641 9.32069 96.1743 9.39539 96.17 9.46997Z" stroke="#EEEEEE" stroke-width="3" stroke-linejoin="round"/>
<path d="M103.41 26C103.408 26.244 103.371 26.4864 103.3 26.72C103.138 27.1393 102.901 27.5257 102.6 27.86C101.918 28.5713 101.124 29.1659 100.25 29.62C99.4354 30.0567 98.5937 30.4408 97.73 30.77C90.42 33.62 76.73 35.54 61.09 35.54C45.45 35.54 31.76 33.62 24.43 30.77C23.4348 30.3875 22.4717 29.926 21.55 29.39C21.0948 29.1278 20.6632 28.8267 20.26 28.49C19.8399 28.2142 19.4876 27.847 19.2295 27.4158C18.9715 26.9846 18.8144 26.5005 18.77 26L19.53 24.19L25.78 9.46996C25.8156 9.88427 25.9437 10.2853 26.1548 10.6436C26.366 11.0018 26.6548 11.3081 27 11.54C28.0523 12.3477 29.2227 12.9885 30.47 13.44C34.47 14.98 40.75 16.21 48.27 16.87C52.21 17.21 56.49 17.4 60.97 17.4C65.45 17.4 69.79 17.21 73.75 16.85C81.23 16.21 87.45 14.98 91.44 13.44C92.9357 12.9386 94.3018 12.1121 95.44 11.02C95.7049 10.7319 95.9059 10.3911 96.03 10.02C96.0818 9.82753 96.1087 9.62924 96.11 9.42996C96.1241 9.3573 96.1241 9.28262 96.11 9.20996L102.59 24.13L103.41 26Z" stroke="#EEEEEE" stroke-width="3" stroke-linejoin="round"/>
<path d="M103.41 25.9999L102.62 24.1799C103.029 24.6115 103.291 25.1608 103.37 25.7499C103.403 25.829 103.416 25.9146 103.41 25.9999Z" stroke="#EEEEEE" stroke-width="3" stroke-linejoin="round"/>
<path d="M19.53 24.1799L18.77 25.9999C18.7915 25.3206 19.062 24.6728 19.53 24.1799Z" stroke="#EEEEEE" stroke-width="3" stroke-linejoin="round"/>
</g>
<defs>
<clipPath id="clip0_67_300">
<rect width="122.18" height="250.8" fill="white"/>
</clipPath>
</defs>
</svg>

<svg xmlns="http://www.w3.org/2000/svg" viewBox="0 0 122.18 250.8"><defs><style>.cls-1,.cls-2{fill:none;}.cls-1,.cls-2,.cls-3{stroke:#1f1f1f;stroke-width:3px;}.cls-1,.cls-3{stroke-miterlimit:10;}.cls-2{stroke-linejoin:round;}.cls-3,.cls-4{fill:#1f1f1f;}</style></defs><g id="Layer_2" data-name="Layer 2"><g id="Layer_1-2" data-name="Layer 1"><path class="cls-1" d="M100.15,29.38,119.29,72a4.23,4.23,0,0,1,1.39,2.91,3.3,3.3,0,0,1-.17,1,4.71,4.71,0,0,1-1,1.61c-1.3,1.46-3.63,2.84-6.84,4.09-10.3,4-29.55,6.72-51.6,6.72S19.81,85.63,9.49,81.6A21.86,21.86,0,0,1,3.6,78.41h0A4.77,4.77,0,0,1,1.5,74.88l1.21-2.71v0L21.55,29.38"/><path class="cls-1" d="M2.71,72.17,1.5,74.88A4.06,4.06,0,0,1,2.71,72.17Z"/><path class="cls-2" d="M120.68,152.57v83.27c0,2.45-2.91,4.75-8,6.72-10.3,4-29.54,6.74-51.58,6.74s-41.29-2.72-51.61-6.74c-5.07-2-8-4.27-8-6.72V152.57c0,2.46,2.91,4.75,8,6.74,10.32,4,29.57,6.7,51.61,6.7s41.28-2.7,51.58-6.7C117.77,157.32,120.68,155,120.68,152.57Z"/><path class="cls-1" d="M120.6,153.26c-16.27-14.79-4.29-37.66-1.07-43.18"/><path class="cls-1" d="M2.57,110.08c3.22,5.52,15.64,27.77-1.06,43.18"/><path class="cls-1" d="M120.68,74.88v32.57a3.24,3.24,0,0,1-.17,1,4.75,4.75,0,0,1-1,1.62c-1.3,1.46-3.63,2.84-6.84,4.09-10.3,4-29.55,6.72-51.6,6.72s-41.28-2.7-51.6-6.72A22.43,22.43,0,0,1,3.6,111l0,0a4.75,4.75,0,0,1-2.08-3.51V74.88A4.77,4.77,0,0,0,3.58,78.4h0A21.86,21.86,0,0,0,9.49,81.6c10.32,4,29.55,6.72,51.6,6.72s41.3-2.69,51.6-6.72c3.21-1.25,5.54-2.63,6.84-4.09a4.71,4.71,0,0,0,1-1.61A3.3,3.3,0,0,0,120.68,74.88Z"/><path class="cls-3" d="M120.68,85.1V97.23a3.24,3.24,0,0,1-.17,1,4.66,4.66,0,0,1-1,1.62c-1.3,1.46-3.63,2.84-6.84,4.09-10.3,4-29.55,6.72-51.6,6.72S19.81,108,9.49,104a22.43,22.43,0,0,1-5.89-3.19l0,0A4.75,4.75,0,0,1,1.5,97.23V85.1a4.79,4.79,0,0,0,2.08,3.52h0a22.14,22.14,0,0,0,5.89,3.19c10.32,4,29.55,6.72,51.6,6.72s41.3-2.7,51.6-6.72c3.21-1.25,5.54-2.63,6.84-4.09a4.66,4.66,0,0,0,1-1.62A3.2,3.2,0,0,0,120.68,85.1Z"/><line class="cls-1" x1="93.43" y1="14.44" x2="93.37" y2="14.3"/><line class="cls-1" x1="120.59" y1="74.88" x2="119.29" y2="71.97"/><path class="cls-4" d="M35,198.6c.16.54.39,1.22.61,2,2.93-.5,6.15-1.07,7.21-1.29a6.67,6.67,0,0,0,1.38-.39l2.26,1.5a36.39,36.39,0,0,1-5.09,7l-3.17-1.35a17.43,17.43,0,0,0,3.48-3.8c-.63.09-2.81.5-5.25.94.91,3,1.91,6.34,2.34,7.65.14.41.51,1.42.71,1.9l-3.67.78a20.61,20.61,0,0,0-.51-2.07c-.38-1.2-1.34-4.58-2.23-7.61-1.92.37-3.61.7-4.36.87l-.86-3c.84-.07,1.61-.14,2.45-.25.3-.06,1-.17,2-.32-.22-.74-.41-1.36-.57-1.83a7.27,7.27,0,0,0-.73-1.75l3.6-.74A14.55,14.55,0,0,0,35,198.6Z"/><path class="cls-4" d="M54.12,199.53H57.4a8.79,8.79,0,0,0,2-.24l2.51,1.4a8.22,8.22,0,0,0-.8,1.51,18.71,18.71,0,0,1-3.52,6.06,19.56,19.56,0,0,1-8.27,5.32l-2.93-2.36c4.4-1.22,6.52-2.79,8.25-4.54a11.66,11.66,0,0,0,2.69-4.62H52.27a24.62,24.62,0,0,1-5.13,4.41l-2.77-1.86a17.64,17.64,0,0,0,6.33-5.79,9.51,9.51,0,0,0,1.08-2.19l3.6,1.07A21.12,21.12,0,0,0,54.12,199.53Z"/><path class="cls-4" d="M63.47,207c.57-1.52.59-4.91.59-7.22a6.64,6.64,0,0,0-.23-1.91h3.63a12.78,12.78,0,0,0-.17,1.87,38.5,38.5,0,0,1-.59,8,11,11,0,0,1-3.64,5.43l-3-1.81A8.54,8.54,0,0,0,63.47,207Zm6.25,3.2V199.58a8.61,8.61,0,0,0-.19-1.72H73.2A9.94,9.94,0,0,0,73,199.6v9.09a11.19,11.19,0,0,0,4.53-3.53l1.89,2.48a23.24,23.24,0,0,1-6.88,5,6.5,6.5,0,0,0-1,.61l-2.06-1.53A6.51,6.51,0,0,0,69.72,210.19Z"/><path class="cls-4" d="M81.91,199.75a11.91,11.91,0,0,0-.24-2.4h3.85a20.05,20.05,0,0,0-.21,2.4v2.53a71.2,71.2,0,0,1,8.41,2.79l-1.4,3.12a67.19,67.19,0,0,0-7-2.64v4.75c0,.5.13,1.95.23,2.79H81.67a19.35,19.35,0,0,0,.24-2.79Z"/><ellipse class="cls-1" cx="60.78" cy="205.1" rx="47.36" ry="18.56"/><path class="cls-2" d="M96.17,9.47a2.33,2.33,0,0,1-.08.59,2.78,2.78,0,0,1-.59,1,10.68,10.68,0,0,1-4,2.42c-4,1.54-10.21,2.77-17.69,3.41-4,.36-8.28.55-12.78.55s-8.76-.19-12.7-.53c-7.52-.66-13.78-1.89-17.8-3.43A12.92,12.92,0,0,1,27,11.54h0a2.78,2.78,0,0,1-1.23-2.07c0-4.4,15.75-8,35.21-8C80.11,1.5,95.66,5,96.14,9.25A.58.58,0,0,1,96.17,9.47Z"/><path class="cls-2" d="M103.41,26a2.57,2.57,0,0,1-.11.72,3.7,3.7,0,0,1-.7,1.14,9,9,0,0,1-2.35,1.76,21.66,21.66,0,0,1-2.52,1.15c-7.31,2.85-21,4.77-36.64,4.77s-29.33-1.92-36.66-4.77a20,20,0,0,1-2.88-1.38,9.08,9.08,0,0,1-1.29-.9h0A3.33,3.33,0,0,1,18.77,26l.76-1.81L25.78,9.47A2.78,2.78,0,0,0,27,11.54h0a12.92,12.92,0,0,0,3.47,1.9c4,1.54,10.28,2.77,17.8,3.43,3.94.34,8.22.53,12.7.53s8.82-.19,12.78-.55c7.48-.64,13.7-1.87,17.69-3.41a10.68,10.68,0,0,0,4-2.42,2.78,2.78,0,0,0,.59-1,2.33,2.33,0,0,0,.08-.59.58.58,0,0,0,0-.22l6.48,14.92Z"/><path class="cls-2" d="M103.41,26l-.79-1.82a2.83,2.83,0,0,1,.75,1.57A.55.55,0,0,1,103.41,26Z"/><path class="cls-2" d="M19.53,24.18,18.77,26A2.77,2.77,0,0,1,19.53,24.18Z"/></g></g></svg>
